X: 15916
T: Grandad's
R: waltz
M: 3/4
K: Gmajor
|:B,DG|B2 BA GF|G2 B,3C|D2 G3B|c2 E4|c2 cB A2|
A2 E3G|F3F EF|ED B,4|B2 BA GF|G2 B,3C|D2 G3B|
c2 E4|c2 cB A2|B2 BA G2|A2 E2 F2|G3:|
|:FFE|D2 E2 F2|G2 B2 d2|B2 BA G2|F2 E4|D2 F2 A2|
D2 F2 A2|D3E F2|E2 D4|D2 E2 F2|G2 B2 d2|B2 BA G2|
F2 E4|c2 cB A2|B2 BA G2|A2 E2 F2|G3:|

